img/servicios-eventos-icon.svg

<svg width="66" height="55" viewBox="0 0 66 55" fill="none" xmlns="http://www.w3.org/2000/svg">
<path d="M65.937 46.5741C65.0735 44.3861 62.6628 43.3388 60.5622 44.2518L58.2811 45.2453L54.285 34.3859C59.2216 30.7231 60.9747 23.6232 57.8428 17.984L48.9102 1.81848C48.0853 0.328667 46.4249 -0.302918 44.878 0.35552L33.1013 5.44364L21.2224 0.259493C19.6755 -0.398408 17.9224 0.23264 17.0974 1.72299L8.1617 17.8843C5.0422 23.5234 6.78293 30.5374 11.7143 34.2861L7.71827 45.2314L5.44232 44.2432C3.34168 43.3304 0.944042 44.3775 0.0674868 46.5655C-0.112981 47.0085 0.0803773 47.5053 0.505765 47.6933L17.2531 54.9297C17.5728 55.1177 18.1425 54.9163 18.3225 54.4733C19.1861 52.2853 18.1936 49.7611 16.093 48.8481L13.8119 47.8681L17.8719 36.7402C18.3359 36.7939 18.787 36.8744 19.2249 36.8744C24.5615 36.8744 29.4723 33.4265 30.9191 27.7186L33.0074 19.624L35.0957 27.7186C36.4466 33.3298 41.4502 36.8744 46.79 36.8744C47.2282 36.8744 47.6793 36.7939 48.143 36.7402L52.1906 47.8681L49.9095 48.8481C47.8088 49.761 46.8034 52.1886 47.6799 54.4733C47.8604 54.9163 48.3502 55.1177 48.7627 54.9297L65.5101 47.6933C65.9061 47.4978 66.1124 47.0145 65.937 46.5741V46.5741ZM28.4514 17.4116L16.8912 12.417L20.6552 5.61024L30.4004 9.81758L28.4514 17.4116V17.4116ZM37.5469 17.4116L35.601 9.81329L45.3452 5.61131L49.1092 12.418L37.5469 17.4116V17.4116Z" fill="#C3B214"/>
</svg>

<svg width="66" height="55" fill="none" xmlns="http://www.w3.org/2000/svg"><path d="M65.937 46.574c-.864-2.188-3.274-3.235-5.375-2.322l-2.28.993-3.997-10.86c4.937-3.662 6.69-10.762 3.558-16.401L48.91 1.818c-.825-1.49-2.485-2.12-4.032-1.462L33.101 5.444 21.222.259c-1.547-.657-3.3-.026-4.125 1.464L8.162 17.884c-3.12 5.64-1.38 12.653 3.552 16.402L7.718 45.231l-2.276-.988c-2.1-.913-4.498.134-5.375 2.322-.18.444.013.94.439 1.128l16.747 7.237c.32.188.89-.014 1.07-.457.863-2.188-.13-4.712-2.23-5.625l-2.281-.98 4.06-11.128c.464.054.915.134 1.353.134 5.336 0 10.247-3.448 11.694-9.155l2.088-8.095 2.089 8.095c1.35 5.61 6.354 9.155 11.694 9.155.438 0 .89-.08 1.353-.134l4.048 11.128-2.282.98c-2.1.913-3.106 3.34-2.23 5.625.181.443.671.645 1.084.457l16.747-7.237a.886.886 0 0 0 .427-1.119zM28.451 17.412l-11.56-4.995 3.764-6.807L30.4 9.818l-1.949 7.594zm9.096 0L35.6 9.813l9.744-4.202 3.764 6.807-11.562 4.994z" fill="#C3B214"/></svg>
